public/avatar/emote/107.svg

<svg xmlns:xlink="http://www.w3.org/1999/xlink" height="100.8" width="132.65" xmlns="http://www.w3.org/2000/svg"><g transform="translate(77.75 73.55)"><use height="5.3" transform="matrix(1 0 0 .6509 -12.25 -1.422)" width="24.45" xlink:href="#a"/><use height="30" transform="matrix(.5 0 0 .5 9.1 -19.55)" width="10.05" xlink:href="#b"/><use height="30" transform="matrix(.5 0 0 .5 -14.45 -17.85)" width="10.05" xlink:href="#b"/><use height="30" transform="matrix(.375 0 0 .375 -13.238 -4.688)" width="10.05" xlink:href="#b"/><use height="30" transform="matrix(.375 0 0 .375 1.462 -20.688)" width="10.05" xlink:href="#b"/><use height="30" transform="matrix(.375 0 0 .375 11.113 -3.188)" width="10.05" xlink:href="#b"/><use height="10.85" transform="translate(-8.75 -7.7)" width="17.55" xlink:href="#c"/><use height="30" transform="matrix(.375 0 0 .375 5.813 -9.488)" width="10.05" xlink:href="#b"/><use height="7.75" transform="translate(-5.1 3.55)" width="9.9" xlink:href="#d"/></g><defs><g id="f"><path d="m4.65.25.05.3-.05-.3.1.25-.05.05.1 1.7L4.95 6l.1 3.9q0 1.95-.95 3.5-.5.8-1.45.75-1.9-.1-2.55-2.25H.05v-.15q.1-1.35.45-2.3Q.95 8 4.55.05l.1.15v.05M.1 11.9l-.05-.15.05.15" fill="#fff" fill-rule="evenodd" transform="translate(.5 .45)"/><path d="M.1 11.9q.65 2.15 2.55 2.25.95.05 1.45-.75.95-1.55.95-3.5L4.95 6 4.8 2.25 4.7.55 4.75.5 8.6 9.45q.5 1.4.45 3.65-.05 2.2-1.2 3.05-1.15.85-3.3.85-2.2 0-3.35-.85T0 13.1l.05-1.2H.1" fill="#b8d2f1" fill-rule="evenodd" transform="translate(.5 .45)"/><path d="m4.65.2-.1-.15Q.95 8 .5 9.45q-.35.95-.45 2.3v.15L0 13.1q.05 2.2 1.2 3.05 1.15.85 3.35.85 2.15 0 3.3-.85t1.2-3.05q.05-2.25-.45-3.65L4.75.5" fill="none" stroke="#6f88b0" stroke-linecap="round" stroke-linejoin="round" transform="translate(.5 .45)"/><path d="m4.7.55-.05-.3V.2M.05 11.75l.05.15M4.75.5l-.1-.25" fill="none" stroke="#6f88b0" stroke-linecap="round" stroke-linejoin="round" transform="translate(.5 .45)"/></g><g id="c"><path d="M8.3-2.3 8.05-.45l-.9 1.6q-1 1.2-2.3 1.4l-.5.05-1-.15q-1.05-.35-1.8-1.3Q.5-.2.4-1.95v-.35Q.35-4.35 1.55-5.75q1.1-1.45 2.8-1.45 1.65 0 2.8 1.45Q8.3-4.35 8.3-2.3m-16.55.05q-.05-2 1.15-3.45Q-6-7.15-4.3-7.15q1.65 0 2.8 1.45t1.15 3.45v.3Q-.45-.15-1.5 1.2l-1.3 1.1-1.5.35-1.1-.2q-.95-.3-1.7-1.25Q-7.7.5-8-.4q-.3-.85-.25-1.85" fill="#fff" fill-rule="evenodd" transform="translate(8.75 7.7)"/><path d="M8.3-2.3 8.05-.45l-.9 1.6q-1 1.2-2.3 1.4l-.5.05-1-.15q-1.05-.35-1.8-1.3Q.5-.2.4-1.95v-.35Q.35-4.35 1.55-5.75q1.1-1.45 2.8-1.45 1.65 0 2.8 1.45Q8.3-4.35 8.3-2.3m-16.55.05q-.05-2 1.15-3.45Q-6-7.15-4.3-7.15q1.65 0 2.8 1.45t1.15 3.45v.3Q-.45-.15-1.5 1.2l-1.3 1.1-1.5.35-1.1-.2q-.95-.3-1.7-1.25Q-7.7.5-8-.4q-.3-.85-.25-1.85" fill="none" stroke="#666" stroke-linecap="round" stroke-linejoin="round" transform="translate(8.75 7.7)"/><path d="m-4.3-2.5.2-.5.45-.15.45.15.2.5-.2.45-.45.2q-.25 0-.45-.2l-.2-.45m7.25 0 .2-.5.45-.15.45.15.2.5-.2.45-.45.2q-.25 0-.45-.2l-.2-.45" fill-rule="evenodd" transform="translate(8.75 7.7)"/></g><g id="d"><path d="M2.35 5.7q-2.1 10.25-4.95 0 1.15.05 2.5-1.6 1.3 1.65 2.45 1.6" fill="#666" fill-rule="evenodd" transform="translate(5.1 -3.55)"/><path d="M4.3 4.05Q3.4 5.6 2.35 5.7q-2.1 10.25-4.95 0-1.1-.05-2-1.65M2.35 5.7Q1.2 5.75-.1 4.1q-1.35 1.65-2.5 1.6" fill="none" stroke="#333" stroke-linecap="round" stroke-linejoin="round" transform="translate(5.1 -3.55)"/></g><use height="17.95" width="10.05" xlink:href="#e" id="b"/><use height="17.95" width="10.05" xlink:href="#f" id="e"/><path d="m.4-1.75.6.1 3.8.6 1.65.45L8.7.25l2.85 1.3q.6.6.7 1.3 0 1.05-3.15.45l-.4-.1L7.4 3l-2.5-.25L.95 2.5l-6.3.15-2.5.35-.25.05-.6.1-3.45-.15-.05-.2q0-1.1 2.35-2.45l3.15-1.2.05-.05.55-.15 4.9-.75 1.6.05" fill-opacity=".153" fill-rule="evenodd" transform="translate(12.2 1.8)" id="a"/></defs></svg>

<?xml version="1.0" encoding="UTF-8" standalone="no"?>
<svg xmlns:xlink="http://www.w3.org/1999/xlink" height="100.8px" width="132.65px" xmlns="http://www.w3.org/2000/svg">
  <g transform="matrix(1.0, 0.0, 0.0, 1.0, 77.75, 73.55)">
    <use height="5.3" transform="matrix(1.0, 0.0, 0.0, 0.6509, -12.25, -1.4217)" width="24.45" xlink:href="#shape0"/>
    <use height="30.0" transform="matrix(0.5, 0.0, 0.0, 0.5, 9.1, -19.55)" width="10.05" xlink:href="#sprite0"/>
    <use height="30.0" transform="matrix(0.5, 0.0, 0.0, 0.5, -14.45, -17.85)" width="10.05" xlink:href="#sprite0"/>
    <use height="30.0" transform="matrix(0.375, 0.0, 0.0, 0.375, -13.2375, -4.6875)" width="10.05" xlink:href="#sprite0"/>
    <use height="30.0" transform="matrix(0.375, 0.0, 0.0, 0.375, 1.4625, -20.6875)" width="10.05" xlink:href="#sprite0"/>
    <use height="30.0" transform="matrix(0.375, 0.0, 0.0, 0.375, 11.1125, -3.1875)" width="10.05" xlink:href="#sprite0"/>
    <use height="10.85" transform="matrix(1.0, 0.0, 0.0, 1.0, -8.75, -7.7)" width="17.55" xlink:href="#shape2"/>
    <use height="30.0" transform="matrix(0.375, 0.0, 0.0, 0.375, 5.8125, -9.4875)" width="10.05" xlink:href="#sprite0"/>
    <use height="7.75" transform="matrix(1.0, 0.0, 0.0, 1.0, -5.1, 3.55)" width="9.9" xlink:href="#shape3"/>
  </g>
  <defs>
    <g id="shape0" transform="matrix(1.0, 0.0, 0.0, 1.0, 12.2, 1.8)">
      <path d="M0.4 -1.75 L1.0 -1.65 4.8 -1.05 6.45 -0.6 8.7 0.25 11.55 1.55 Q12.15 2.15 12.25 2.85 12.25 3.9 9.1 3.3 L8.7 3.2 7.4 3.0 4.9 2.75 0.95 2.5 -5.35 2.65 -7.85 3.0 -8.1 3.05 -8.7 3.15 -12.15 3.0 -12.2 2.8 Q-12.2 1.7 -9.85 0.35 L-6.7 -0.85 -6.65 -0.9 -6.1 -1.05 -1.2 -1.8 0.4 -1.75" fill="#000000" fill-opacity="0.15294118" fill-rule="evenodd" stroke="none"/>
    </g>
    <g id="sprite0" transform="matrix(1.0, 0.0, 0.0, 1.0, 0.5, 12.5)">
      <use height="17.95" transform="matrix(1.0, 0.0, 0.0, 1.0, -0.5, -12.5)" width="10.05" xlink:href="#sprite1"/>
    </g>
    <g id="sprite1" transform="matrix(1.0, 0.0, 0.0, 1.0, 0.5, 0.45)">
      <use height="17.95" transform="matrix(1.0, 0.0, 0.0, 1.0, -0.5, -0.45)" width="10.05" xlink:href="#shape1"/>
    </g>
    <g id="shape1" transform="matrix(1.0, 0.0, 0.0, 1.0, 0.5, 0.45)">
      <path d="M4.65 0.25 L4.7 0.55 4.65 0.25 4.75 0.5 4.7 0.55 4.8 2.25 4.95 6.0 5.05 9.9 Q5.05 11.85 4.1 13.4 3.6 14.2 2.65 14.15 0.75 14.05 0.1 11.9 L0.05 11.9 0.05 11.75 Q0.15 10.4 0.5 9.45 0.95 8.0 4.55 0.05 L4.65 0.2 4.65 0.25 M0.1 11.9 L0.05 11.75 0.1 11.9" fill="#ffffff" fill-rule="evenodd" stroke="none"/>
      <path d="M0.1 11.9 Q0.75 14.05 2.65 14.15 3.6 14.2 4.1 13.4 5.05 11.85 5.05 9.9 L4.95 6.0 4.8 2.25 4.7 0.55 4.75 0.5 8.6 9.45 Q9.1 10.85 9.05 13.1 9.0 15.3 7.85 16.15 6.7 17.0 4.55 17.0 2.35 17.0 1.2 16.15 0.05 15.3 0.0 13.1 L0.05 11.9 0.1 11.9" fill="#b8d2f1" fill-rule="evenodd" stroke="none"/>
      <path d="M4.65 0.2 L4.55 0.05 Q0.95 8.0 0.5 9.45 0.15 10.4 0.05 11.75 L0.05 11.9 0.0 13.1 Q0.05 15.3 1.2 16.15 2.35 17.0 4.55 17.0 6.7 17.0 7.85 16.15 9.0 15.3 9.05 13.1 9.1 10.85 8.6 9.45 L4.75 0.5" fill="none" stroke="#6f88b0" stroke-linecap="round" stroke-linejoin="round" stroke-width="1.0"/>
      <path d="M4.7 0.55 L4.65 0.25 4.65 0.2 M0.05 11.75 L0.1 11.9 M4.75 0.5 L4.65 0.25" fill="none" stroke="#6f88b0" stroke-linecap="round" stroke-linejoin="round" stroke-width="1.0"/>
    </g>
    <g id="shape2" transform="matrix(1.0, 0.0, 0.0, 1.0, 8.75, 7.7)">
      <path d="M8.3 -2.3 L8.05 -0.45 7.15 1.15 Q6.15 2.35 4.85 2.55 L4.35 2.6 3.35 2.45 Q2.3 2.1 1.55 1.15 0.5 -0.2 0.4 -1.95 L0.4 -2.3 Q0.35 -4.35 1.55 -5.75 2.65 -7.2 4.35 -7.2 6.0 -7.2 7.15 -5.75 8.3 -4.35 8.3 -2.3 M-8.25 -2.25 Q-8.3 -4.25 -7.1 -5.7 -6.0 -7.15 -4.3 -7.15 -2.65 -7.15 -1.5 -5.7 -0.35 -4.25 -0.35 -2.25 L-0.35 -1.95 Q-0.45 -0.15 -1.5 1.2 L-2.8 2.3 -4.3 2.65 -5.4 2.45 Q-6.35 2.15 -7.1 1.2 -7.7 0.5 -8.0 -0.4 -8.3 -1.25 -8.25 -2.25" fill="#ffffff" fill-rule="evenodd" stroke="none"/>
      <path d="M8.3 -2.3 L8.05 -0.45 7.15 1.15 Q6.15 2.35 4.85 2.55 L4.35 2.6 3.35 2.45 Q2.3 2.1 1.55 1.15 0.5 -0.2 0.4 -1.95 L0.4 -2.3 Q0.35 -4.35 1.55 -5.75 2.65 -7.2 4.35 -7.2 6.0 -7.2 7.15 -5.75 8.3 -4.35 8.3 -2.3 M-8.25 -2.25 Q-8.3 -4.25 -7.1 -5.7 -6.0 -7.15 -4.3 -7.15 -2.65 -7.15 -1.5 -5.7 -0.35 -4.25 -0.35 -2.25 L-0.35 -1.95 Q-0.45 -0.15 -1.5 1.2 L-2.8 2.3 -4.3 2.65 -5.4 2.45 Q-6.35 2.15 -7.1 1.2 -7.7 0.5 -8.0 -0.4 -8.3 -1.25 -8.25 -2.25" fill="none" stroke="#666666" stroke-linecap="round" stroke-linejoin="round" stroke-width="1.0"/>
      <path d="M-4.3 -2.5 L-4.1 -3.0 -3.65 -3.15 -3.2 -3.0 -3.0 -2.5 -3.2 -2.05 -3.65 -1.85 Q-3.9 -1.85 -4.1 -2.05 L-4.3 -2.5" fill="#000000" fill-rule="evenodd" stroke="none"/>
      <path d="M2.95 -2.5 L3.15 -3.0 3.6 -3.15 4.05 -3.0 4.25 -2.5 4.05 -2.05 3.6 -1.85 Q3.35 -1.85 3.15 -2.05 L2.95 -2.5" fill="#000000" fill-rule="evenodd" stroke="none"/>
    </g>
    <g id="shape3" transform="matrix(1.0, 0.0, 0.0, 1.0, 5.1, -3.55)">
      <path d="M2.35 5.7 Q0.25 15.95 -2.6 5.7 -1.45 5.75 -0.1 4.1 1.2 5.75 2.35 5.7" fill="#666666" fill-rule="evenodd" stroke="none"/>
      <path d="M4.3 4.05 Q3.4 5.6 2.35 5.7 0.25 15.95 -2.6 5.7 -3.7 5.65 -4.6 4.05 M2.35 5.7 Q1.2 5.75 -0.1 4.1 -1.45 5.75 -2.6 5.7" fill="none" stroke="#333333" stroke-linecap="round" stroke-linejoin="round" stroke-width="1.0"/>
    </g>
  </defs>
</svg>
